svg/Tango/emotes/face-surprise.svg

<?xml version="1.0" encoding="UTF-8" standalone="no"?>
<!-- Created with Inkscape (http://www.inkscape.org/) -->
<svg
   xmlns:dc="http://purl.org/dc/elements/1.1/"
   xmlns:cc="http://creativecommons.org/ns#"
   xmlns:rdf="http://www.w3.org/1999/02/22-rdf-syntax-ns#"
   xmlns:svg="http://www.w3.org/2000/svg"
   xmlns="http://www.w3.org/2000/svg"
   xmlns:xlink="http://www.w3.org/1999/xlink"
   xmlns:sodipodi="http://sodipodi.sourceforge.net/DTD/sodipodi-0.dtd"
   xmlns:inkscape="http://www.inkscape.org/namespaces/inkscape"
   width="48px"
   height="48px"
   id="svg4376"
   sodipodi:version="0.32"
   inkscape:version="0.46"
   sodipodi:docbase="/home/jimmac/gfx/ximian/tango-icon-theme/scalable/emotes"
   sodipodi:docname="face-surprise.svg"
   inkscape:output_extension="org.inkscape.output.svg.inkscape">
  <defs
     id="defs3">
    <inkscape:perspective
       sodipodi:type="inkscape:persp3d"
       inkscape:vp_x="0 : 24 : 1"
       inkscape:vp_y="0 : 1000 : 0"
       inkscape:vp_z="48 : 24 : 1"
       inkscape:persp3d-origin="24 : 16 : 1"
       id="perspective39" />
    <linearGradient
       id="linearGradient3290">
      <stop
         id="stop3292"
         offset="0.0000000"
         style="stop-color:#fffcde;stop-opacity:1.0000000;" />
      <stop
         style="stop-color:#f6e76a;stop-opacity:1.0000000;"
         offset="0.64485979"
         id="stop3294" />
      <stop
         id="stop3296"
         offset="1.0000000"
         style="stop-color:#ffb738;stop-opacity:1.0000000;" />
    </linearGradient>
    <radialGradient
       r="8.9020796"
       fy="15.755712"
       fx="29.158466"
       cy="15.720984"
       cx="29.288071"
       gradientUnits="userSpaceOnUse"
       id="radialGradient2714"
       xlink:href="#linearGradient3290"
       inkscape:collect="always" />
    <linearGradient
       id="linearGradient2509">
      <stop
         id="stop2511"
         offset="0.0000000"
         style="stop-color:#fffbd5;stop-opacity:1.0000000;" />
      <stop
         id="stop2513"
         offset="1.0000000"
         style="stop-color:#edd400;stop-opacity:1.0000000;" />
    </linearGradient>
    <radialGradient
       gradientUnits="userSpaceOnUse"
       fy="39.5928"
       fx="25.0527"
       r="15.7572"
       cy="39.5928"
       cx="25.0527"
       id="aigrd2"
       gradientTransform="matrix(1.250000,0.000000,0.000000,1.250000,-6.214281,-8.428572)">
      <stop
         id="stop8602"
         style="stop-color:#777777;stop-opacity:1.0000000;"
         offset="0.0000000" />
      <stop
         id="stop8604"
         style="stop-color:#000000"
         offset="1" />
    </radialGradient>
    <linearGradient
       inkscape:collect="always"
       id="linearGradient4565">
      <stop
         style="stop-color:#000000;stop-opacity:1;"
         offset="0"
         id="stop4567" />
      <stop
         style="stop-color:#000000;stop-opacity:0;"
         offset="1"
         id="stop4569" />
    </linearGradient>
    <linearGradient
       id="linearGradient3824">
      <stop
         style="stop-color:#ffffff;stop-opacity:1;"
         offset="0"
         id="stop3826" />
      <stop
         style="stop-color:#c9c9c9;stop-opacity:1.0000000;"
         offset="1.0000000"
         id="stop3828" />
    </linearGradient>
    <linearGradient
       id="linearGradient3800">
      <stop
         style="stop-color:#ffeed6;stop-opacity:1.0000000;"
         offset="0.0000000"
         id="stop3802" />
      <stop
         id="stop8664"
         offset="0.50000000"
         style="stop-color:#e49c2f;stop-opacity:1.0000000;" />
      <stop
         style="stop-color:#ffc66c;stop-opacity:1.0000000;"
         offset="1.0000000"
         id="stop3804" />
    </linearGradient>
    <radialGradient
       inkscape:collect="always"
       xlink:href="#linearGradient4565"
       id="radialGradient4571"
       cx="24.714285"
       cy="38.571430"
       fx="24.714285"
       fy="38.571430"
       r="19.714285"
       gradientTransform="matrix(1.000000,0.000000,0.000000,0.333333,0.000000,25.71429)"
       gradientUnits="userSpaceOnUse" />
  </defs>
  <sodipodi:namedview
     fill="#edd400"
     id="base"
     pagecolor="#ffffff"
     bordercolor="#666666"
     borderopacity="0.19607843"
     inkscape:pageopacity="0.0"
     inkscape:pageshadow="2"
     inkscape:zoom="11.313708"
     inkscape:cx="25.411306"
     inkscape:cy="24.058534"
     inkscape:current-layer="layer1"
     showgrid="false"
     inkscape:grid-bbox="true"
     inkscape:document-units="px"
     inkscape:showpageshadow="false"
     inkscape:window-width="770"
     inkscape:window-height="739"
     inkscape:window-x="223"
     inkscape:window-y="109" />
  <metadata
     id="metadata4">
    <rdf:RDF>
      <cc:Work
         rdf:about="">
        <dc:format>image/svg+xml</dc:format>
        <dc:type
           rdf:resource="http://purl.org/dc/dcmitype/StillImage" />
        <dc:title>Face - Shocked</dc:title>
        <dc:subject>
          <rdf:Bag>
            <rdf:li>emoticon</rdf:li>
            <rdf:li>emote</rdf:li>
            <rdf:li>smiley</rdf:li>
            <rdf:li>stare</rdf:li>
            <rdf:li>shocked</rdf:li>
            <rdf:li>:O</rdf:li>
          </rdf:Bag>
        </dc:subject>
        <cc:license
           rdf:resource="http://creativecommons.org/licenses/publicdomain/" />
        <dc:creator>
          <cc:Agent>
            <dc:title>Jakub Steiner</dc:title>
          </cc:Agent>
        </dc:creator>
        <dc:source>http://jimmac.musichall.cz</dc:source>
      </cc:Work>
      <cc:License
         rdf:about="http://creativecommons.org/licenses/publicdomain/">
        <cc:permits
           rdf:resource="http://creativecommons.org/ns#Reproduction" />
        <cc:permits
           rdf:resource="http://creativecommons.org/ns#Distribution" />
        <cc:permits
           rdf:resource="http://creativecommons.org/ns#DerivativeWorks" />
      </cc:License>
    </rdf:RDF>
  </metadata>
  <g
     id="layer1"
     inkscape:label="Layer 1"
     inkscape:groupmode="layer">
    <path
       sodipodi:type="arc"
       style="opacity:0.53164557;color:#000000;fill:url(#radialGradient4571);fill-opacity:1.0;fill-rule:evenodd;stroke:none;stroke-width:0.40487173;stroke-linecap:round;stroke-linejoin:round;marker:none;marker-start:none;marker-mid:none;marker-end:none;stroke-miterlimit:4.0000000;stroke-dasharray:none;stroke-dashoffset:0.0000000;stroke-opacity:1.0000000;visibility:visible;display:inline;overflow:visible"
       id="path4563"
       sodipodi:cx="24.714285"
       sodipodi:cy="38.571430"
       sodipodi:rx="19.714285"
       sodipodi:ry="6.5714288"
       d="M 44.428570 38.571430 A 19.714285 6.5714288 0 1 1  5.0000000,38.571430 A 19.714285 6.5714288 0 1 1  44.428570 38.571430 z" />
    <path
       sodipodi:type="arc"
       style="overflow:visible;display:inline;visibility:visible;stroke-opacity:1.0000000;stroke-dashoffset:0.0000000;stroke-dasharray:none;stroke-miterlimit:4.0000000;marker-end:none;marker-mid:none;marker-start:none;marker:none;stroke-linejoin:round;stroke-linecap:round;stroke-width:0.48004404;stroke:#9c8c0a;fill-rule:evenodd;fill-opacity:1.0000000;fill:url(#radialGradient2714);color:#000000;opacity:1.0000000"
       id="path4320"
       sodipodi:cx="31.112698"
       sodipodi:cy="19.008621"
       sodipodi:rx="8.6620579"
       sodipodi:ry="8.6620579"
       d="M 39.774755 19.008621 A 8.6620579 8.6620579 0 1 1  22.450640,19.008621 A 8.6620579 8.6620579 0 1 1  39.774755 19.008621 z"
       transform="matrix(2.083142,0.000000,0.000000,2.083142,-40.54715,-16.49224)" />
    <path
       d="M 39.774755 19.008621 A 8.6620579 8.6620579 0 1 1  22.450640,19.008621 A 8.6620579 8.6620579 0 1 1  39.774755 19.008621 z"
       sodipodi:ry="8.6620579"
       sodipodi:rx="8.6620579"
       sodipodi:cy="19.008621"
       sodipodi:cx="31.112698"
       id="path4322"
       style="opacity:0.67721519;color:#000000;fill:none;fill-opacity:1.0000000;fill-rule:evenodd;stroke:#ffffff;stroke-width:0.50510627;stroke-linecap:round;stroke-linejoin:round;marker:none;marker-start:none;marker-mid:none;marker-end:none;stroke-miterlimit:4.0000000;stroke-dasharray:none;stroke-dashoffset:0.0000000;stroke-opacity:1.0000000;visibility:visible;display:inline;overflow:visible"
       sodipodi:type="arc"
       transform="matrix(1.979782,0.000000,0.000000,1.979782,-37.33128,-14.52746)" />
    <path
       id="path8599"
       d="M 33.660715,32.696428 C 33.660715,36.196428 29.410715,38.946428 24.285715,38.946428 C 19.160715,38.946428 14.910715,36.196428 14.910715,32.696428 C 14.910715,29.196428 19.160715,26.446428 24.285715,26.446428 C 29.410715,26.446428 33.660715,29.196428 33.660715,32.696428 z "
       style="opacity:0.35999998;fill:#ffffff;fill-rule:nonzero;stroke:none;stroke-miterlimit:4.0000000" />
    <path
       id="path8606"
       d="M 33.660715,31.696428 C 33.660715,35.196428 29.410715,37.946428 24.285715,37.946428 C 19.160715,37.946428 14.910715,35.196428 14.910715,31.696428 C 14.910715,28.196428 19.160715,25.446428 24.285715,25.446428 C 29.410715,25.446428 33.660715,28.196428 33.660715,31.696428 z "
       style="fill:url(#aigrd2);fill-rule:nonzero;stroke:none;stroke-miterlimit:4.0000000" />
    <g
       id="g8666"
       transform="translate(0.265165,0.000000)">
      <path
         id="path8610"
         d="M 21.398158,15.321428 C 21.398158,17.821428 20.273158,19.821428 18.898158,19.821428 C 17.523158,19.821428 16.273158,17.821428 16.273158,15.321428 C 16.273158,12.821428 17.398158,10.821428 18.773158,10.821428 C 20.148158,10.821428 21.273158,12.821428 21.273158,15.321428 L 21.398158,15.321428 z "
         style="opacity:0.35999998;fill:#ffffff;fill-rule:nonzero;stroke:none;stroke-miterlimit:4.0000000" />
      <path
         id="path8612"
         d="M 30.688512,15.321428 C 30.688512,17.821428 29.563512,19.821428 28.188512,19.821428 C 26.813512,19.821428 25.688512,17.821428 25.688512,15.321428 C 25.688512,12.821428 26.813512,10.821428 28.188512,10.821428 C 29.563512,10.821428 30.688512,12.821428 30.688512,15.321428 z "
         style="opacity:0.35999998;fill:#ffffff;fill-rule:nonzero;stroke:none;stroke-miterlimit:4.0000000" />
      <path
         id="path8614"
         d="M 21.398158,14.696428 C 21.398158,17.196428 20.273158,19.196428 18.898158,19.196428 C 17.523158,19.196428 16.398158,17.196428 16.398158,14.696428 C 16.398158,12.196428 17.523158,10.196428 18.898158,10.196428 C 20.273158,10.196428 21.398158,12.196428 21.398158,14.696428 z "
         style="fill:#000000;fill-rule:nonzero;stroke:none;stroke-miterlimit:4.0000000" />
      <path
         id="path8616"
         d="M 30.688512,14.696428 C 30.688512,17.196428 29.563512,19.196428 28.188512,19.196428 C 26.813512,19.196428 25.688512,17.196428 25.688512,14.696428 C 25.688512,12.196428 26.813512,10.196428 28.188512,10.196428 C 29.563512,10.196428 30.688512,12.196428 30.688512,14.696428 z "
         style="fill:#000000;fill-rule:nonzero;stroke:none;stroke-miterlimit:4.0000000" />
    </g>
  </g>
</svg>

<svg xmlns="http://www.w3.org/2000/svg" viewBox="0 0 48 48"><defs><radialGradient r="8.902" fy="15.756" fx="29.16" cy="15.721" cx="29.29" gradientUnits="userSpaceOnUse" id="0"><stop stop-color="#fffcde"/><stop offset=".645" stop-color="#f6e76a"/><stop offset="1" stop-color="#ffb738"/></radialGradient><radialGradient gradientUnits="userSpaceOnUse" r="19.697" cy="41.06" cx="25.1" id="1"><stop stop-color="#777"/><stop offset="1"/></radialGradient><radialGradient id="2" cx="24.714" cy="38.571" r="19.714" gradientTransform="matrix(1 0 0 .33333 0 25.714)" gradientUnits="userSpaceOnUse"><stop/><stop offset="1" stop-opacity="0"/></radialGradient></defs><g fill-rule="evenodd" color="#000"><path d="M44.42857 38.57143A19.714285 6.571429 0 1 1 5 38.57143 19.714285 6.571429 0 1 1 44.42857 38.57143" opacity=".532" fill="url(#2)"/><g stroke-linejoin="round" stroke-linecap="round"><path d="M39.774755 19.00862A8.662058 8.662058 0 1 1 22.45064 19.00862 8.662058 8.662058 0 1 1 39.774755 19.00862z" transform="matrix(2.08314 0 0 2.08314-40.547-16.492)" stroke-width=".48" fill="url(#0)" stroke="#9c8c0a"/><path d="M39.774755 19.00862A8.662058 8.662058 0 1 1 22.45064 19.00862 8.662058 8.662058 0 1 1 39.774755 19.00862z" transform="matrix(1.97978 0 0 1.97978-37.33-14.527)" opacity=".677" stroke-width=".505" fill="none" stroke="#fff"/></g></g><path d="m33.661 32.696c0 3.5-4.25 6.25-9.375 6.25-5.125 0-9.375-2.75-9.375-6.25 0-3.5 4.25-6.25 9.375-6.25 5.125 0 9.375 2.75 9.375 6.25" opacity=".36" fill="#fff"/><path d="m33.661 31.696c0 3.5-4.25 6.25-9.375 6.25-5.125 0-9.375-2.75-9.375-6.25 0-3.5 4.25-6.25 9.375-6.25 5.125 0 9.375 2.75 9.375 6.25" fill="url(#1)"/><g transform="translate(.265)"><g fill="#fff"><path d="m21.398 15.321c0 2.5-1.125 4.5-2.5 4.5-1.375 0-2.625-2-2.625-4.5 0-2.5 1.125-4.5 2.5-4.5 1.375 0 2.5 2 2.5 4.5h.125" opacity=".36"/><path d="m30.689 15.321c0 2.5-1.125 4.5-2.5 4.5-1.375 0-2.5-2-2.5-4.5 0-2.5 1.125-4.5 2.5-4.5 1.375 0 2.5 2 2.5 4.5" opacity=".36"/></g><path d="m21.398 14.696c0 2.5-1.125 4.5-2.5 4.5-1.375 0-2.5-2-2.5-4.5 0-2.5 1.125-4.5 2.5-4.5 1.375 0 2.5 2 2.5 4.5"/><path d="m30.689 14.696c0 2.5-1.125 4.5-2.5 4.5-1.375 0-2.5-2-2.5-4.5 0-2.5 1.125-4.5 2.5-4.5 1.375 0 2.5 2 2.5 4.5"/></g></svg>
